X:698
T: DER SULTAN HAT EIN TOECHTERLEIN
N: E2127
O: Europa, Mitteleuropa, Deutschland, Wertheim
R: geistlich, Heiligen - Lied, Legende
M: 3/2
L: 1/8
K: G
D2 | G2A2B4d4 | B2A2G6
c2 | B2A2B4d4 | e4d4z2
d2 | B2d2c4B4 | A2G2F4z2
G2 | E2D2B3AG2A2 | D4G4z2

@@@ Tune index: 5382
